static/img/kroki/abba39cde04e89647e11fc20c1b9b3b8.svg

<?xml version="1.0" encoding="us-ascii" standalone="no"?><svg xmlns="http://www.w3.org/2000/svg" xmlns:xlink="http://www.w3.org/1999/xlink" contentStyleType="text/css" height="252px" preserveAspectRatio="none" style="width:459px;height:252px;" version="1.1" viewBox="0 0 459 252" width="459px" zoomAndPan="magnify"><defs/><g><!--class azure_firewall--><g id="elem_azure_firewall"><rect codeLine="22" fill="#3D176E" height="39.7891" id="azure_firewall" rx="2.5" ry="2.5" style="stroke:#000D19;stroke-width:0.5;" width="160" x="155.5" y="106.79"/><ellipse cx="170.5" cy="126.6845" fill="#ADD1B2" rx="11" ry="11" style="stroke:#181818;stroke-width:1.0;"/><path d="M173.4688,132.3252 Q172.8906,132.622 172.25,132.7627 Q171.6094,132.9189 170.9063,132.9189 Q168.4063,132.9189 167.0781,131.2783 Q165.7656,129.622 165.7656,126.497 Q165.7656,123.372 167.0781,121.7158 Q168.4063,120.0595 170.9063,120.0595 Q171.6094,120.0595 172.25,120.2158 Q172.9063,120.372 173.4688,120.6689 L173.4688,123.3877 Q172.8438,122.8095 172.25,122.5439 Q171.6563,122.2627 171.0313,122.2627 Q169.6875,122.2627 169,123.3408 Q168.3125,124.4033 168.3125,126.497 Q168.3125,128.5908 169,129.6689 Q169.6875,130.7314 171.0313,130.7314 Q171.6563,130.7314 172.25,130.4658 Q172.8438,130.1845 173.4688,129.6064 L173.4688,132.3252 Z " fill="#000000"/><text fill="#D9B8FF" font-family="Helvetica" font-size="17" lengthAdjust="spacing" textLength="118" x="189.5" y="132.5698">azure_firewall</text></g><!--class azure_firewall_policy--><g id="elem_azure_firewall_policy"><rect codeLine="24" fill="#3D176E" height="39.7891" id="azure_firewall_policy" rx="2.5" ry="2.5" style="stroke:#000D19;stroke-width:0.5;" width="217" x="7" y="206.58"/><ellipse cx="22" cy="226.4745" fill="#ADD1B2" rx="11" ry="11" style="stroke:#181818;stroke-width:1.0;"/><path d="M24.9688,232.1152 Q24.3906,232.412 23.75,232.5527 Q23.1094,232.7089 22.4063,232.7089 Q19.9063,232.7089 18.5781,231.0683 Q17.2656,229.412 17.2656,226.287 Q17.2656,223.162 18.5781,221.5058 Q19.9063,219.8495 22.4063,219.8495 Q23.1094,219.8495 23.75,220.0058 Q24.4063,220.162 24.9688,220.4589 L24.9688,223.1777 Q24.3438,222.5995 23.75,222.3339 Q23.1563,222.0527 22.5313,222.0527 Q21.1875,222.0527 20.5,223.1308 Q19.8125,224.1933 19.8125,226.287 Q19.8125,228.3808 20.5,229.4589 Q21.1875,230.5214 22.5313,230.5214 Q23.1563,230.5214 23.75,230.2558 Q24.3438,229.9745 24.9688,229.3964 L24.9688,232.1152 Z " fill="#000000"/><text fill="#D9B8FF" font-family="Helvetica" font-size="17" lengthAdjust="spacing" textLength="175" x="41" y="232.3598">azure_firewall_policy</text></g><!--class azure_subnet--><g id="elem_azure_subnet"><rect codeLine="26" fill="#3D176E" height="39.7891" id="azure_subnet" rx="2.5" ry="2.5" style="stroke:#000D19;stroke-width:0.5;" width="154" x="158.5" y="7"/><ellipse cx="173.5" cy="26.8945" fill="#ADD1B2" rx="11" ry="11" style="stroke:#181818;stroke-width:1.0;"/><path d="M176.4688,32.5352 Q175.8906,32.832 175.25,32.9727 Q174.6094,33.1289 173.9063,33.1289 Q171.4063,33.1289 170.0781,31.4883 Q168.7656,29.832 168.7656,26.707 Q168.7656,23.582 170.0781,21.9258 Q171.4063,20.2695 173.9063,20.2695 Q174.6094,20.2695 175.25,20.4258 Q175.9063,20.582 176.4688,20.8789 L176.4688,23.5977 Q175.8438,23.0195 175.25,22.7539 Q174.6563,22.4727 174.0313,22.4727 Q172.6875,22.4727 172,23.5508 Q171.3125,24.6133 171.3125,26.707 Q171.3125,28.8008 172,29.8789 Q172.6875,30.9414 174.0313,30.9414 Q174.6563,30.9414 175.25,30.6758 Q175.8438,30.3945 176.4688,29.8164 L176.4688,32.5352 Z " fill="#000000"/><text fill="#D9B8FF" font-family="Helvetica" font-size="17" lengthAdjust="spacing" textLength="112" x="192.5" y="32.7798">azure_subnet</text></g><!--class azure_virtual_hub--><g id="elem_azure_virtual_hub"><rect codeLine="28" fill="#3D176E" height="39.7891" id="azure_virtual_hub" rx="2.5" ry="2.5" style="stroke:#000D19;stroke-width:0.5;" width="193" x="259" y="206.58"/><ellipse cx="274" cy="226.4745" fill="#ADD1B2" rx="11" ry="11" style="stroke:#181818;stroke-width:1.0;"/><path d="M276.9688,232.1152 Q276.3906,232.412 275.75,232.5527 Q275.1094,232.7089 274.4063,232.7089 Q271.9063,232.7089 270.5781,231.0683 Q269.2656,229.412 269.2656,226.287 Q269.2656,223.162 270.5781,221.5058 Q271.9063,219.8495 274.4063,219.8495 Q275.1094,219.8495 275.75,220.0058 Q276.4063,220.162 276.9688,220.4589 L276.9688,223.1777 Q276.3438,222.5995 275.75,222.3339 Q275.1563,222.0527 274.5313,222.0527 Q273.1875,222.0527 272.5,223.1308 Q271.8125,224.1933 271.8125,226.287 Q271.8125,228.3808 272.5,229.4589 Q273.1875,230.5214 274.5313,230.5214 Q275.1563,230.5214 275.75,230.2558 Q276.3438,229.9745 276.9688,229.3964 L276.9688,232.1152 Z " fill="#000000"/><text fill="#D9B8FF" font-family="Helvetica" font-size="17" lengthAdjust="spacing" textLength="151" x="293" y="232.3598">azure_virtual_hub</text></g><!--link azure_firewall to azure_firewall_policy--><g id="link_azure_firewall_azure_firewall_policy"><path codeLine="30" d="M211.79,147.01 C190.75,164.15 164.83,185.2683 143.81,202.4083 " fill="none" id="azure_firewall-to-azure_firewall_policy" style="stroke:#1A83AF;stroke-width:2.0;"/><polygon fill="#1A83AF" points="139.16,206.2,148.6629,203.6125,143.035,203.0402,143.6073,197.4124,139.16,206.2" style="stroke:#1A83AF;stroke-width:2.0;"/></g><!--link azure_firewall to azure_virtual_hub--><g id="link_azure_firewall_azure_virtual_hub"><path codeLine="31" d="M259.21,147.01 C280.25,164.15 306.17,185.2683 327.19,202.4083 " fill="none" id="azure_firewall-to-azure_virtual_hub" style="stroke:#1A83AF;stroke-width:2.0;"/><polygon fill="#1A83AF" points="331.84,206.2,327.3927,197.4124,327.965,203.0402,322.3371,203.6125,331.84,206.2" style="stroke:#1A83AF;stroke-width:2.0;"/></g><!--link azure_subnet to azure_firewall--><g id="link_azure_subnet_azure_firewall"><path codeLine="32" d="M235.5,47.22 C235.5,64.36 235.5,83.27 235.5,100.41 " fill="none" id="azure_subnet-to-azure_firewall" style="stroke:#1A83AF;stroke-width:2.0;"/><polygon fill="#1A83AF" points="235.5,106.41,239.5,97.41,235.5,101.41,231.5,97.41,235.5,106.41" style="stroke:#1A83AF;stroke-width:2.0;"/></g><!--SRC=[ZP1DJm8n48Rl_8ecd4bOYG8NavM4w8KOyMOCcTrEsOPkkvdEGi3uttL1JTdouNNUf_C-qq9B55XMl1KbbXcIx_YLjXKGb28bSfk9Cuv4LobGWs4xd3hBLu4Pb2WUqQoHTGvjuhNG-SgYz-8cY1uWNot9rLOUrZE1zTyHMWweYG7lKsRIMSqOoCXnDbAgJRQNTWSo6TvXX3cII3z8lz-NoRYDNAswUFSVCTSx54duQJF766b65NlgecL319BHeR_vMSTda5BRfRWDPYy79x98H_Dv0T9j6bg1yM6DPoHqlArm4bs5uv5KmvFmqpauRtvEmAucN2XDk05Zn4VdysImg9pH-JRAVPrPv6YyriGrc4LHP_kirT9xwoRfQ91Ettltful-yIBew1p9NDZ-1G00]--></g></svg>

<svg xmlns="http://www.w3.org/2000/svg" width="459" height="252" viewBox="0 0 459 252"><rect width="160" height="39.789" x="155.5" y="106.79" fill="#3D176E" rx="2.5" ry="2.5" style="stroke:#000d19;stroke-width:.5"/><circle cx="170.5" cy="126.684" r="11" fill="#ADD1B2" style="stroke:#181818;stroke-width:1"/><path d="M173.469 132.325q-.578.297-1.219.438-.64.156-1.344.156-2.5 0-3.828-1.64-1.312-1.657-1.312-4.782t1.312-4.781q1.328-1.656 3.828-1.656.703 0 1.344.156.656.156 1.219.453v2.719q-.625-.579-1.219-.844-.594-.281-1.219-.281-1.344 0-2.031 1.078-.687 1.062-.687 3.156t.687 3.172q.688 1.062 2.031 1.062.625 0 1.219-.265.594-.281 1.219-.86z"/><text x="189.5" y="132.57" fill="#D9B8FF" font-family="Helvetica" font-size="17" textLength="118">azure_firewall</text><rect width="217" height="39.789" x="7" y="206.58" fill="#3D176E" rx="2.5" ry="2.5" style="stroke:#000d19;stroke-width:.5"/><circle cx="22" cy="226.475" r="11" fill="#ADD1B2" style="stroke:#181818;stroke-width:1"/><path d="M24.969 232.115q-.578.297-1.219.438-.64.156-1.344.156-2.5 0-3.828-1.64-1.312-1.657-1.312-4.782t1.312-4.781q1.328-1.656 3.828-1.656.703 0 1.344.156.656.156 1.219.453v2.719q-.625-.578-1.219-.844-.594-.281-1.219-.281-1.343 0-2.031 1.078-.687 1.062-.687 3.156t.687 3.172q.688 1.062 2.031 1.062.625 0 1.219-.265.594-.281 1.219-.86z"/><text x="41" y="232.36" fill="#D9B8FF" font-family="Helvetica" font-size="17" textLength="175">azure_firewall_policy</text><rect width="154" height="39.789" x="158.5" y="7" fill="#3D176E" rx="2.5" ry="2.5" style="stroke:#000d19;stroke-width:.5"/><circle cx="173.5" cy="26.895" r="11" fill="#ADD1B2" style="stroke:#181818;stroke-width:1"/><path d="M176.469 32.535q-.578.297-1.219.438-.64.156-1.344.156-2.5 0-3.828-1.64-1.312-1.657-1.312-4.782t1.312-4.781q1.328-1.656 3.828-1.656.703 0 1.344.156.656.156 1.219.453v2.719q-.625-.578-1.219-.844-.594-.281-1.219-.281-1.344 0-2.031 1.078-.687 1.062-.687 3.156t.687 3.172q.688 1.062 2.031 1.062.625 0 1.219-.265.594-.281 1.219-.86z"/><text x="192.5" y="32.78" fill="#D9B8FF" font-family="Helvetica" font-size="17" textLength="112">azure_subnet</text><rect width="193" height="39.789" x="259" y="206.58" fill="#3D176E" rx="2.5" ry="2.5" style="stroke:#000d19;stroke-width:.5"/><circle cx="274" cy="226.475" r="11" fill="#ADD1B2" style="stroke:#181818;stroke-width:1"/><path d="M276.969 232.115q-.578.297-1.219.438-.64.156-1.344.156-2.5 0-3.828-1.64-1.312-1.657-1.312-4.782t1.312-4.781q1.328-1.656 3.828-1.656.703 0 1.344.156.656.156 1.219.453v2.719q-.625-.578-1.219-.844-.594-.281-1.219-.281-1.344 0-2.031 1.078-.687 1.062-.687 3.156t.687 3.172q.688 1.062 2.031 1.062.625 0 1.219-.265.594-.281 1.219-.86z"/><text x="293" y="232.36" fill="#D9B8FF" font-family="Helvetica" font-size="17" textLength="151">azure_virtual_hub</text><path fill="none" d="M211.79 147.01c-21.04 17.14-46.96 38.258-67.98 55.398" style="stroke:#1a83af;stroke-width:2"/><path fill="#1A83AF" d="m139.16 206.2 9.503-2.587-5.628-.573.572-5.628z" style="stroke:#1a83af;stroke-width:2"/><path fill="none" d="M259.21 147.01c21.04 17.14 46.96 38.258 67.98 55.398" style="stroke:#1a83af;stroke-width:2"/><path fill="#1A83AF" d="m331.84 206.2-4.447-8.788.572 5.628-5.628.573z" style="stroke:#1a83af;stroke-width:2"/><path fill="none" d="M235.5 47.22v53.19" style="stroke:#1a83af;stroke-width:2"/><path fill="#1A83AF" d="m235.5 106.41 4-9-4 4-4-4z" style="stroke:#1a83af;stroke-width:2"/></svg>
